X: 4
T: Red Crow, The
C: Mairéad Ní Mhaonaigh
Z: Erik-Fiddler
S: https://thesession.org/tunes/184#setting52203
R: reel
M: 4/4
L: 1/8
K: Ador
|:~A,2 EA, B,G,G,B,|(3A,/A,/A,/A, EG FDEG|AGED EA,A,D|ECDC B,G,G,B,|
(3A,/A,/A,/A, EA, B,G,G,B,|(3A,/A,/A,/A, EG FDEG|AGED EA,A,E|1DB,G,B, A,2 G,/A,/B,:|2DB,G,B, [E2A,2]||
|:E/F/G|(3A/A/A/A eA ceAc|eAce dcBA|(3G/G/G/G dc BdGB|dGBd edcB|
[1(3A/A/A/A eA ceAc|eAcb ageg| afge d=fed|c/B/A BG A2:|
[2(3A/A/A/A aA gAfA|eA (3A/A/A/A cAAB|c/B/A BG AGEF|GEDB, G,A,B,G,||

%-------------------- TUNE SEPARATOR --------------------%

